X:64
T:Orphan
M:6/8
L:1/8
S:Edor
R:Jig
D:Kevin Burke: Up Close
K:Edor
G2F |: ~E3 EDB, | GFG A3 | B3 (AB)A | GEF EDB, |
~A,3 EDB, | GFG AGA | BdB (AB)A |1 GED EGF :|2 GED E3 :||
~e3 dBA | GAB d3 | ege dBA | GEF EDB, |
~A,3 EDB, | GFG AGA | BdB (AB)A | GED E3 :||
"alternate ending" GFG A3 | B3 (AB)A | GED E3 ||
